X: 14490
T: Gan Ainm
R: polka
M: 2/4
K: Dmajor
A/A/|AFDF|A3 B/B/|BGEG|B3 D/D/|
d c/c/ c B/B/|B A/A/ A G/G/|G F/F/ F E/E/|E D/D/ DA/A/|
AFDF|A3 B/B/|BGEG|B3 e/e/|
e d/d/ d c/c/|c B/B/ B A/A/|AABc|d2 d2||

